TRatioPlot/r2.svg

<svg xmlns="http://www.w3.org/2000/svg" viewBox="0 0 1200 800" preserveAspectRatio="none" width="1200" height="800">
 <path d="M0,0H1200V800H0Z" style="fill: white;"></path>
 <g>
  <svg viewBox="0 0 1194 558" preserveAspectRatio="none" x="3" y="2" width="1194" height="558">
   <path d="M0,0H1194V558H0Z" style="fill: white;"></path>
   <g>
    <g transform="translate(119,56)">
     <path d="M0,0H955V474H0Z" style="fill: white; stroke: black; stroke-width: 1;"></path>
     <svg x="0" y="0" overflow="hidden" width="955" height="474" viewBox="0 0 955 474">
      <g>
       <path d="M0,474h57v-3h19v3h58v-3h19v3h19v-3h19v-2h19v-11h57v-47h20v-2h19v-21h19v-55h19v-52h19v-26h19v-63h19v-44h19v2h19v-75h19v-52h20v28h19v21h19v-5h19v94h19v55h19v49h19v58h19v23h19v24h19v28h20v26h19v13h19v19h19v2h19v8h19v5h19v3h19v-5h19v5h39v-3h19v3h76" style="stroke-linejoin: miter; stroke: #00009a; stroke-width: 1; fill: none;"></path>
      </g>
      <g>
       <path d="M0,474C1.59,474,6.37,474,9.55,474S15.92,474,19.1,474S25.47,474,28.65,473.99S35.02,473.99,38.2,473.99S44.57,473.99,47.75,473.99S54.12,473.98,57.3,473.98S63.67,473.97,66.85,473.97S73.22,473.95,76.4,473.95S82.77,473.93,85.95,473.92S92.32,473.89,95.5,473.88S101.87,473.84,105.05,473.82S111.42,473.77,114.6,473.73S120.97,473.66,124.15,473.61S130.52,473.5,133.7,473.43S140.07,473.28,143.25,473.18S149.62,472.97,152.8,472.84S159.18,472.55,162.35,472.37S168.74,471.98,171.9,471.73S178.3,471.2,181.45,470.88S187.88,470.17,191,469.74S197.47,468.81,200.55,468.26S207.08,467.02,210.1,466.33S216.72,464.72,219.65,463.86S226.4,461.76,229.2,460.72S236.12,458.01,238.75,456.8S245.89,453.3,248.3,451.94S255.69,447.47,257.85,445.99S265.51,440.35,267.4,438.79S275.33,431.78,276.95,430.19S285.13,421.62,286.5,420.04S294.9,409.74,296.05,408.21S304.64,396.06,305.6,394.6S314.34,380.52,315.15,379.13S324.02,363.1,324.7,361.79S333.66,343.86,334.25,342.63S343.28,322.91,343.8,321.73S352.88,300.42,353.35,299.3S362.47,276.66,362.9,275.58S372.04,251.97,372.45,250.91S381.6,226.75,382,225.7S391.15,201.49,391.55,200.43S400.67,176.71,401.1,175.63S410.18,152.98,410.65,151.85S419.66,130.89,420.2,129.69S429.09,111.01,429.75,109.72S438.44,93.88,439.3,92.47S447.64,79.97,448.85,78.43S456.62,69.59,458.4,68.01S465.33,62.73,467.95,61.52S474.32,59.24,477.5,59.14S484.32,59.85,487.05,60.96S494.72,65.36,496.6,66.92S504.88,75.28,506.15,76.84S514.8,88.98,515.7,90.41S524.57,105.96,525.25,107.26S534.24,125.7,534.8,126.91S543.87,147.68,544.35,148.81S553.47,171.32,553.9,172.4S563.04,196.04,563.45,197.11S572.6,221.29,573,222.35S582.14,246.53,582.55,247.59S591.67,271.27,592.1,272.36S601.19,295.1,601.65,296.22S610.69,317.68,611.2,318.85S620.17,338.73,620.75,339.95S629.63,358.06,630.3,359.36S639.06,375.57,639.85,376.94S648.46,391.21,649.4,392.66S657.83,404.99,658.95,406.51S667.16,417,668.5,418.58S676.46,427.35,678.05,428.94S685.75,436.17,687.6,437.74S695.02,443.61,697.15,445.11S704.32,449.83,706.7,451.21S713.65,454.98,716.25,456.21S723.02,459.19,725.8,460.25S732.43,462.6,735.35,463.48S741.89,465.32,744.9,466.03S751.37,467.46,754.45,468.03S760.88,469.12,764,469.57S770.4,470.4,773.55,470.74S779.94,471.38,783.1,471.63S789.48,472.1,792.65,472.3S799.02,472.64,802.2,472.79S808.57,473.04,811.75,473.14S818.12,473.33,821.3,473.4S827.67,473.53,830.85,473.59S837.22,473.68,840.4,473.72S846.77,473.78,849.95,473.81S856.32,473.85,859.5,473.87S865.87,473.9,869.05,473.91S875.42,473.94,878.6,473.94S884.97,473.96,888.15,473.96S894.52,473.97,897.7,473.98S904.07,473.98,907.25,473.99S913.62,473.99,916.8,473.99S923.17,473.99,926.35,473.99S932.72,474,935.9,474S942.27,474,945.45,474S953.41,474,955,474" style="fill: none; stroke: red; stroke-width: 2;"></path>
      </g>
     </svg>
     <g>
      <g transform="translate(0,474)">
       <path d="M0,0h955M0,-17v17m19,-9v9m19,-9v9m19,-9v9m19,-9v9m20,-17v17m19,-9v9m19,-9v9m19,-9v9m19,-9v9m19,-17v17m19,-9v9m19,-9v9m19,-9v9m19,-9v9m20,-17v17m19,-9v9m19,-9v9m19,-9v9m19,-9v9m19,-17v17m19,-9v9m19,-9v9m19,-9v9m19,-9v9m20,-17v17m19,-9v9m19,-9v9m19,-9v9m19,-9v9m19,-17v17m19,-9v9m19,-9v9m19,-9v9m19,-9v9m20,-17v17m19,-9v9m19,-9v9m19,-9v9m19,-9v9m19,-17v17m19,-9v9m19,-9v9m19,-9v9m19,-9v9m20,-17v17m19,-9v9m19,-9v9m19,-9v9m19,-9v9m19,-17v17" style="stroke: black; stroke-width: 1;"></path>
      </g>
      <g>
       <path d="M0,0v474M955,0v474M36,474h-36m18,-13h-18m18,-13h-18m18,-13h-18m36,-13h-36m18,-13h-18m18,-13h-18m18,-13h-18m36,-13h-36m18,-13h-18m18,-13h-18m18,-14h-18m36,-13h-36m18,-13h-18m18,-13h-18m18,-13h-18m36,-13h-36m18,-13h-18m18,-13h-18m18,-13h-18m36,-13h-36m18,-13h-18m18,-13h-18m18,-13h-18m36,-13h-36m18,-13h-18m18,-13h-18m18,-13h-18m36,-13h-36m18,-13h-18m18,-13h-18m18,-13h-18m36,-14h-36m18,-13h-18m18,-13h-18m18,-13h-18m36,-13h-36M919,474H955M937,461H955M937,448H955M937,435H955M919,422H955M937,409H955M937,396H955M937,383H955M919,370H955M937,357H955M937,344H955M937,330H955M919,317H955M937,304H955M937,291H955M937,278H955M919,265H955M937,252H955M937,239H955M937,226H955M919,213H955M937,200H955M937,187H955M937,174H955M919,161H955M937,148H955M937,135H955M937,122H955M919,109H955M937,96H955M937,83H955M937,70H955M919,56H955M937,43H955M937,30H955M937,17H955M919,4H955" style="stroke: black; stroke-width: 1;"></path>
       <g font-family="Arial" font-size="20" space="preserve" fill="black" text-anchor="end">
        <text dy=".4em" transform="translate(-3,474)">
         0
        </text>
        <text dy=".4em" transform="translate(-3,422)">
         20
        </text>
        <text dy=".4em" transform="translate(-3,370)">
         40
        </text>
        <text dy=".4em" transform="translate(-3,317)">
         60
        </text>
        <text dy=".4em" transform="translate(-3,265)">
         80
        </text>
        <text dy=".4em" transform="translate(-3,213)">
         100
        </text>
        <text dy=".4em" transform="translate(-3,161)">
         120
        </text>
        <text dy=".4em" transform="translate(-3,109)">
         140
        </text>
        <text dy=".4em" transform="translate(-3,56)">
         160
        </text>
        <text dy=".4em" transform="translate(-3,4)">
         180
        </text>
       </g>
       <g font-family="Arial" font-size="20" space="preserve" transform="translate(-52,0)">
        <text fill="black" text-anchor="end" dy=".4em" transform=" rotate(270)">
         entries
        </text>
       </g>
      </g>
     </g>
    </g>
    <g transform="translate(119,3)" font-family="Arial" font-size="28" space="preserve">
     <text fill="black" text-anchor="middle" dy=".8em" transform="translate(478)">
      h1
     </text>
    </g>
   </g>
  </svg>
  <svg viewBox="0 0 1194 238" preserveAspectRatio="none" x="3" y="560" width="1194" height="238">
   <path d="M0,0H1194V238H0Z" style="fill: white;"></path>
   <g>
    <g transform="translate(119,12)">
     <path d="M0,0H955V155H0Z" style="fill: white; stroke: black; stroke-width: 1;"></path>
     <svg x="0" y="0" overflow="hidden" width="955" height="155" viewBox="0 0 955 155">
      <g>
       <path d="M86,79l76,13l39,24l19,3l19,-6l19,13l19,16l19,-24l19,8h19l19,-5l19,-2l20,2l19,-1l19,1l19,4l19,-3l19,-3l19,-1l19,-2l19,-4l19,2h20l19,1l19,2l19,-2l19,-3l19,-2l19,-2l19,-5l19,-1l19,-7l20,-2h19l38,-12l57,-3L888,77l-57,-3l-38,-12h-19l-20,-2l-19,-7l-19,-1l-19,-5l-19,-2l-19,-2l-19,-3l-19,-2l-19,2l-19,1h-20l-19,2l-19,-4l-19,-2l-19,-1l-19,-3l-19,-3l-19,4l-19,1l-19,-1l-20,2l-19,-2l-19,-5h-19l-19,8l-19,-24l-19,16l-19,13l-19,-6l-19,3l-39,24l-76,13Z" style="fill: #00ff00;"></path>
      </g>
      <g>
       <path d="M86,78l76,7l39,12l19,1l19,-3l19,7l19,8l19,-12l19,4h19l19,-3l19,-1l20,1h38l19,2l19,-1l19,-2h19l19,-1l19,-2l19,1h39l19,1l19,-1l19,-1l19,-1l19,-1l19,-3h19l19,-4l20,-1h19l38,-6l57,-1L888,77l-57,-1l-38,-6h-19l-20,-1l-19,-4h-19l-19,-3l-19,-1l-19,-1l-19,-1l-19,-1l-19,1h-39l-19,1l-19,-2l-19,-1h-19l-19,-2l-19,-1l-19,2h-38l-20,1l-19,-1l-19,-3h-19l-19,4l-19,-12l-19,8l-19,7l-19,-3l-19,1l-39,12l-76,7Z" style="fill: #ffff00;"></path>
      </g>
      <g>
       <path d="M67,17l76,18l38,55l20,-4l19,-61l19,67l19,104l19,-209l19,93l19,33l19,-66l19,-20l19,60l20,-28l19,10l19,94l19,-92l19,-63l19,52l19,9l19,-67l19,101l19,18l20,3l19,35l19,-61l19,-48l19,-8l19,11l19,-23l19,43l19,-45l19,24l20,41l38,-88l57,13" style="stroke: black; stroke-width: 1; fill: none;"></path>
      </g>
     </svg>
     <g>
      <g transform="translate(0,155)">
       <path d="M0,0h955M0,-7v7m19,-4v4m19,-4v4m19,-4v4m19,-4v4m20,-7v7m19,-4v4m19,-4v4m19,-4v4m19,-4v4m19,-7v7m19,-4v4m19,-4v4m19,-4v4m19,-4v4m20,-7v7m19,-4v4m19,-4v4m19,-4v4m19,-4v4m19,-7v7m19,-4v4m19,-4v4m19,-4v4m19,-4v4m20,-7v7m19,-4v4m19,-4v4m19,-4v4m19,-4v4m19,-7v7m19,-4v4m19,-4v4m19,-4v4m19,-4v4m20,-7v7m19,-4v4m19,-4v4m19,-4v4m19,-4v4m19,-7v7m19,-4v4m19,-4v4m19,-4v4m19,-4v4m20,-7v7m19,-4v4m19,-4v4m19,-4v4m19,-4v4m19,-7v7" style="stroke: black; stroke-width: 1;"></path>
       <g font-family="Arial" font-size="20" space="preserve" fill="black" text-anchor="middle">
        <text dy=".8em" transform="translate(0,3)">
         -5
        </text>
        <text dy=".8em" transform="translate(96,3)">
         -4
        </text>
        <text dy=".8em" transform="translate(191,3)">
         -3
        </text>
        <text dy=".8em" transform="translate(287,3)">
         -2
        </text>
        <text dy=".8em" transform="translate(382,3)">
         -1
        </text>
        <text dy=".8em" transform="translate(478,3)">
         0
        </text>
        <text dy=".8em" transform="translate(573,3)">
         1
        </text>
        <text dy=".8em" transform="translate(669,3)">
         2
        </text>
        <text dy=".8em" transform="translate(764,3)">
         3
        </text>
        <text dy=".8em" transform="translate(860,3)">
         4
        </text>
        <text dy=".8em" transform="translate(955,3)">
         5
        </text>
       </g>
       <g font-family="Arial" font-size="20" space="preserve" transform="translate(955,32)">
        <text fill="black" text-anchor="end" dy=".4em">
         x
        </text>
       </g>
      </g>
      <g>
       <path d="M0,0v155M955,0v155M18,151h-18m18,-6h-18m36,-6h-36m18,-6h-18m18,-6h-18m18,-7h-18m18,-6h-18m36,-6h-36m18,-6h-18m18,-6h-18m18,-6h-18m18,-6h-18m36,-6h-36m18,-7h-18m18,-6h-18m18,-6h-18m18,-6h-18m36,-6h-36m18,-6h-18m18,-6h-18m18,-7h-18m18,-6h-18m36,-6h-36m18,-6h-18m18,-6h-18M937,151H955M937,145H955M919,139H955M937,133H955M937,127H955M937,120H955M937,114H955M919,108H955M937,102H955M937,96H955M937,90H955M937,84H955M919,78H955M937,71H955M937,65H955M937,59H955M937,53H955M919,47H955M937,41H955M937,35H955M937,28H955M937,22H955M919,16H955M937,10H955M937,4H955" style="stroke: black; stroke-width: 1;"></path>
       <g font-family="Arial" font-size="20" space="preserve" fill="black" text-anchor="end">
        <text dy=".4em" transform="translate(-1,139)">
         -1
        </text>
        <text dy=".4em" transform="translate(-1,108)">
         -0.5
        </text>
        <text dy=".4em" transform="translate(-1,78)">
         0
        </text>
        <text dy=".4em" transform="translate(-1,47)">
         0.5
        </text>
        <text dy=".4em" transform="translate(-1,16)">
         1
        </text>
       </g>
       <g font-family="Arial" font-size="20" space="preserve" transform="translate(-61,0)">
        <text fill="black" text-anchor="end" dy=".4em" transform=" rotate(270)">
         ratio
        </text>
       </g>
      </g>
     </g>
    </g>
    <g>
     <path d="M119,28L1075,28" style="stroke: black; stroke-width: 1; stroke-dasharray: 3,3;"></path>
    </g>
    <g>
     <path d="M119,89L1075,89" style="stroke: black; stroke-width: 1; stroke-dasharray: 3,3;"></path>
    </g>
    <g>
     <path d="M119,150L1075,150" style="stroke: black; stroke-width: 1; stroke-dasharray: 3,3;"></path>
    </g>
   </g>
  </svg>
 </g>
</svg>

<svg xmlns="http://www.w3.org/2000/svg" viewBox="0 0 1200 800" preserveAspectRatio="none" width="1200" height="800">
 <path d="M0,0H1200V800H0Z" style="fill: white;"></path>
 <g>
  <svg viewBox="0 0 1194 558" preserveAspectRatio="none" x="3" y="2" width="1194" height="558">
   <path d="M0,0H1194V558H0Z" style="fill: white;"></path>
   <g>
    <g transform="translate(119,56)">
     <path d="M0,0H955V474H0Z" style="fill: white; stroke: black; stroke-width: 1;"></path>
     <svg x="0" y="0" overflow="hidden" width="955" height="474" viewBox="0 0 955 474">
      <g>
       <path d="M0,474h57v-3h19v3h58v-3h19v3h19v-3h19v-2h19v-11h57v-47h20v-2h19v-21h19v-55h19v-52h19v-26h19v-63h19v-44h19v2h19v-75h19v-52h20v28h19v21h19v-5h19v94h19v55h19v49h19v58h19v23h19v24h19v28h20v26h19v13h19v19h19v2h19v8h19v5h19v3h19v-5h19v5h39v-3h19v3h76" style="stroke-linejoin: miter; stroke: #00009a; stroke-width: 1; fill: none;"></path>
      </g>
      <g>
       <path d="M0,474C1.59,474,6.37,474,9.55,474S15.92,474,19.1,474S25.47,474,28.65,473.99S35.02,473.99,38.2,473.99S44.57,473.99,47.75,473.99S54.12,473.98,57.3,473.98S63.67,473.97,66.85,473.97S73.22,473.95,76.4,473.95S82.77,473.93,85.95,473.92S92.32,473.89,95.5,473.88S101.87,473.84,105.05,473.82S111.42,473.77,114.6,473.73S120.97,473.66,124.15,473.61S130.52,473.5,133.7,473.43S140.07,473.28,143.25,473.18S149.62,472.97,152.8,472.84S159.18,472.55,162.35,472.37S168.74,471.98,171.9,471.73S178.3,471.2,181.45,470.88S187.88,470.17,191,469.74S197.47,468.81,200.55,468.26S207.08,467.02,210.1,466.33S216.72,464.72,219.65,463.86S226.4,461.76,229.2,460.72S236.12,458.01,238.75,456.8S245.89,453.3,248.3,451.94S255.69,447.47,257.85,445.99S265.51,440.35,267.4,438.79S275.33,431.78,276.95,430.19S285.13,421.62,286.5,420.04S294.9,409.74,296.05,408.21S304.64,396.06,305.6,394.6S314.34,380.52,315.15,379.13S324.02,363.1,324.7,361.79S333.66,343.86,334.25,342.63S343.28,322.91,343.8,321.73S352.88,300.42,353.35,299.3S362.47,276.66,362.9,275.58S372.04,251.97,372.45,250.91S381.6,226.75,382,225.7S391.15,201.49,391.55,200.43S400.67,176.71,401.1,175.63S410.18,152.98,410.65,151.85S419.66,130.89,420.2,129.69S429.09,111.01,429.75,109.72S438.44,93.88,439.3,92.47S447.64,79.97,448.85,78.43S456.62,69.59,458.4,68.01S465.33,62.73,467.95,61.52S474.32,59.24,477.5,59.14S484.32,59.85,487.05,60.96S494.72,65.36,496.6,66.92S504.88,75.28,506.15,76.84S514.8,88.98,515.7,90.41S524.57,105.96,525.25,107.26S534.24,125.7,534.8,126.91S543.87,147.68,544.35,148.81S553.47,171.32,553.9,172.4S563.04,196.04,563.45,197.11S572.6,221.29,573,222.35S582.14,246.53,582.55,247.59S591.67,271.27,592.1,272.36S601.19,295.1,601.65,296.22S610.69,317.68,611.2,318.85S620.17,338.73,620.75,339.95S629.63,358.06,630.3,359.36S639.06,375.57,639.85,376.94S648.46,391.21,649.4,392.66S657.83,404.99,658.95,406.51S667.16,417,668.5,418.58S676.46,427.35,678.05,428.94S685.75,436.17,687.6,437.74S695.02,443.61,697.15,445.11S704.32,449.83,706.7,451.21S713.65,454.98,716.25,456.21S723.02,459.19,725.8,460.25S732.43,462.6,735.35,463.48S741.89,465.32,744.9,466.03S751.37,467.46,754.45,468.03S760.88,469.12,764,469.57S770.4,470.4,773.55,470.74S779.94,471.38,783.1,471.63S789.48,472.1,792.65,472.3S799.02,472.64,802.2,472.79S808.57,473.04,811.75,473.14S818.12,473.33,821.3,473.4S827.67,473.53,830.85,473.59S837.22,473.68,840.4,473.72S846.77,473.78,849.95,473.81S856.32,473.85,859.5,473.87S865.87,473.9,869.05,473.91S875.42,473.94,878.6,473.94S884.97,473.96,888.15,473.96S894.52,473.97,897.7,473.98S904.07,473.98,907.25,473.99S913.62,473.99,916.8,473.99S923.17,473.99,926.35,473.99S932.72,474,935.9,474S942.27,474,945.45,474S953.41,474,955,474" style="fill: none; stroke: red; stroke-width: 2;"></path>
      </g>
     </svg>
     <g>
      <g transform="translate(0,474)">
       <path d="M0,0h955M0,-17V0M19,-9V0M38,-9V0M57,-9V0M76,-9V0M96,-17V0M115,-9V0M134,-9V0M153,-9V0M172,-9V0M191,-17V0M210,-9V0M229,-9V0M248,-9V0M267,-9V0M287,-17V0M306,-9V0M325,-9V0M344,-9V0M363,-9V0M382,-17V0M401,-9V0M420,-9V0M439,-9V0M458,-9V0M478,-17V0M497,-9V0M516,-9V0M535,-9V0M554,-9V0M573,-17V0M592,-9V0M611,-9V0M630,-9V0M649,-9V0M669,-17V0M688,-9V0M707,-9V0M726,-9V0M745,-9V0M764,-17V0M783,-9V0M802,-9V0M821,-9V0M840,-9V0M860,-17V0M879,-9V0M898,-9V0M917,-9V0M936,-9V0M955,-17V0" style="stroke: black; stroke-width: 1;"></path>
      </g>
      <g>
       <path d="M0,0v474M955,0v474M36,474H0M18,461H0M18,448H0M18,435H0M36,422H0M18,409H0M18,396H0M18,383H0M36,370H0M18,357H0M18,344H0M18,330H0M36,317H0M18,304H0M18,291H0M18,278H0M36,265H0M18,252H0M18,239H0M18,226H0M36,213H0M18,200H0M18,187H0M18,174H0M36,161H0M18,148H0M18,135H0M18,122H0M36,109H0M18,96H0M18,83H0M18,70H0M36,56H0M18,43H0M18,30H0M18,17H0M36,4H0M919,474H955M937,461H955M937,448H955M937,435H955M919,422H955M937,409H955M937,396H955M937,383H955M919,370H955M937,357H955M937,344H955M937,330H955M919,317H955M937,304H955M937,291H955M937,278H955M919,265H955M937,252H955M937,239H955M937,226H955M919,213H955M937,200H955M937,187H955M937,174H955M919,161H955M937,148H955M937,135H955M937,122H955M919,109H955M937,96H955M937,83H955M937,70H955M919,56H955M937,43H955M937,30H955M937,17H955M919,4H955" style="stroke: black; stroke-width: 1;"></path>
       <g font-family="Arial" font-size="20" space="preserve" fill="black" text-anchor="end">
        <text dy=".4em" transform="translate(-3,474)">
         0
        </text>
        <text dy=".4em" transform="translate(-3,422)">
         20
        </text>
        <text dy=".4em" transform="translate(-3,370)">
         40
        </text>
        <text dy=".4em" transform="translate(-3,317)">
         60
        </text>
        <text dy=".4em" transform="translate(-3,265)">
         80
        </text>
        <text dy=".4em" transform="translate(-3,213)">
         100
        </text>
        <text dy=".4em" transform="translate(-3,161)">
         120
        </text>
        <text dy=".4em" transform="translate(-3,109)">
         140
        </text>
        <text dy=".4em" transform="translate(-3,56)">
         160
        </text>
        <text dy=".4em" transform="translate(-3,4)">
         180
        </text>
       </g>
       <g font-family="Arial" font-size="20" space="preserve" transform="translate(-52,0)">
        <text fill="black" text-anchor="end" dy=".4em" transform=" rotate(270)">
         entries
        </text>
       </g>
      </g>
     </g>
    </g>
    <g transform="translate(119,3)" font-family="Arial" font-size="28" space="preserve">
     <text fill="black" text-anchor="middle" dy=".8em" transform="translate(478)">
      h1
     </text>
    </g>
   </g>
  </svg>
  <svg viewBox="0 0 1194 238" preserveAspectRatio="none" x="3" y="560" width="1194" height="238">
   <path d="M0,0H1194V238H0Z" style="fill: white;"></path>
   <g>
    <g transform="translate(119,12)">
     <path d="M0,0H955V155H0Z" style="fill: white; stroke: black; stroke-width: 1;"></path>
     <svg x="0" y="0" overflow="hidden" width="955" height="155" viewBox="0 0 955 155">
      <g>
       <path d="M86,79l76,13l39,24l19,3l19,-6l19,13l19,16l19,-24l19,8h19l19,-5l19,-2l20,2l19,-1l19,1l19,4l19,-3l19,-3l19,-1l19,-2l19,-4l19,2h20l19,1l19,2l19,-2l19,-3l19,-2l19,-2l19,-5l19,-1l19,-7l20,-2h19l38,-12l57,-3L888,77l-57,-3l-38,-12h-19l-20,-2l-19,-7l-19,-1l-19,-5l-19,-2l-19,-2l-19,-3l-19,-2l-19,2l-19,1h-20l-19,2l-19,-4l-19,-2l-19,-1l-19,-3l-19,-3l-19,4l-19,1l-19,-1l-20,2l-19,-2l-19,-5h-19l-19,8l-19,-24l-19,16l-19,13l-19,-6l-19,3l-39,24l-76,13Z" style="fill: #00ff00;"></path>
      </g>
      <g>
       <path d="M86,78l76,7l39,12l19,1l19,-3l19,7l19,8l19,-12l19,4h19l19,-3l19,-1l20,1h38l19,2l19,-1l19,-2h19l19,-1l19,-2l19,1h39l19,1l19,-1l19,-1l19,-1l19,-1l19,-3h19l19,-4l20,-1h19l38,-6l57,-1L888,77l-57,-1l-38,-6h-19l-20,-1l-19,-4h-19l-19,-3l-19,-1l-19,-1l-19,-1l-19,-1l-19,1h-39l-19,1l-19,-2l-19,-1h-19l-19,-2l-19,-1l-19,2h-38l-20,1l-19,-1l-19,-3h-19l-19,4l-19,-12l-19,8l-19,7l-19,-3l-19,1l-39,12l-76,7Z" style="fill: #ffff00;"></path>
      </g>
      <g>
       <path d="M67,17l76,18l38,55l20,-4l19,-61l19,67l19,104l19,-209l19,93l19,33l19,-66l19,-20l19,60l20,-28l19,10l19,94l19,-92l19,-63l19,52l19,9l19,-67l19,101l19,18l20,3l19,35l19,-61l19,-48l19,-8l19,11l19,-23l19,43l19,-45l19,24l20,41l38,-88l57,13" style="stroke: black; stroke-width: 1; fill: none;"></path>
      </g>
     </svg>
     <g>
      <g transform="translate(0,155)">
       <path d="M0,0h955M0,-7V0M19,-4V0M38,-4V0M57,-4V0M76,-4V0M96,-7V0M115,-4V0M134,-4V0M153,-4V0M172,-4V0M191,-7V0M210,-4V0M229,-4V0M248,-4V0M267,-4V0M287,-7V0M306,-4V0M325,-4V0M344,-4V0M363,-4V0M382,-7V0M401,-4V0M420,-4V0M439,-4V0M458,-4V0M478,-7V0M497,-4V0M516,-4V0M535,-4V0M554,-4V0M573,-7V0M592,-4V0M611,-4V0M630,-4V0M649,-4V0M669,-7V0M688,-4V0M707,-4V0M726,-4V0M745,-4V0M764,-7V0M783,-4V0M802,-4V0M821,-4V0M840,-4V0M860,-7V0M879,-4V0M898,-4V0M917,-4V0M936,-4V0M955,-7V0" style="stroke: black; stroke-width: 1;"></path>
       <g font-family="Arial" font-size="20" space="preserve" fill="black" text-anchor="middle">
        <text dy=".8em" transform="translate(0,3)">
         -5
        </text>
        <text dy=".8em" transform="translate(96,3)">
         -4
        </text>
        <text dy=".8em" transform="translate(191,3)">
         -3
        </text>
        <text dy=".8em" transform="translate(287,3)">
         -2
        </text>
        <text dy=".8em" transform="translate(382,3)">
         -1
        </text>
        <text dy=".8em" transform="translate(478,3)">
         0
        </text>
        <text dy=".8em" transform="translate(573,3)">
         1
        </text>
        <text dy=".8em" transform="translate(669,3)">
         2
        </text>
        <text dy=".8em" transform="translate(764,3)">
         3
        </text>
        <text dy=".8em" transform="translate(860,3)">
         4
        </text>
        <text dy=".8em" transform="translate(955,3)">
         5
        </text>
       </g>
       <g font-family="Arial" font-size="20" space="preserve" transform="translate(955,32)">
        <text fill="black" text-anchor="end" dy=".4em">
         x
        </text>
       </g>
      </g>
      <g>
       <path d="M0,0v155M955,0v155M18,151H0M18,145H0M36,139H0M18,133H0M18,127H0M18,120H0M18,114H0M36,108H0M18,102H0M18,96H0M18,90H0M18,84H0M36,78H0M18,71H0M18,65H0M18,59H0M18,53H0M36,47H0M18,41H0M18,35H0M18,28H0M18,22H0M36,16H0M18,10H0M18,4H0M937,151H955M937,145H955M919,139H955M937,133H955M937,127H955M937,120H955M937,114H955M919,108H955M937,102H955M937,96H955M937,90H955M937,84H955M919,78H955M937,71H955M937,65H955M937,59H955M937,53H955M919,47H955M937,41H955M937,35H955M937,28H955M937,22H955M919,16H955M937,10H955M937,4H955" style="stroke: black; stroke-width: 1;"></path>
       <g font-family="Arial" font-size="20" space="preserve" fill="black" text-anchor="end">
        <text dy=".4em" transform="translate(-1,139)">
         -1
        </text>
        <text dy=".4em" transform="translate(-1,108)">
         -0.5
        </text>
        <text dy=".4em" transform="translate(-1,78)">
         0
        </text>
        <text dy=".4em" transform="translate(-1,47)">
         0.5
        </text>
        <text dy=".4em" transform="translate(-1,16)">
         1
        </text>
       </g>
       <g font-family="Arial" font-size="20" space="preserve" transform="translate(-61,0)">
        <text fill="black" text-anchor="end" dy=".4em" transform=" rotate(270)">
         ratio
        </text>
       </g>
      </g>
     </g>
    </g>
    <g>
     <path d="M119,28L1075,28" style="stroke: black; stroke-width: 1; stroke-dasharray: 3,3;"></path>
    </g>
    <g>
     <path d="M119,89L1075,89" style="stroke: black; stroke-width: 1; stroke-dasharray: 3,3;"></path>
    </g>
    <g>
     <path d="M119,150L1075,150" style="stroke: black; stroke-width: 1; stroke-dasharray: 3,3;"></path>
    </g>
   </g>
  </svg>
 </g>
</svg>
